src/icons/chevron-down.svg

<?xml version="1.0" encoding="UTF-8"?>
<svg width="512px" height="512px" viewBox="0 0 512 512" version="1.1" xmlns="http://www.w3.org/2000/svg" xmlns:xlink="http://www.w3.org/1999/xlink">
    <!-- Generator: Sketch 62 (91390) - https://sketch.com -->
    <title>chevron-down</title>
    <desc>Created with Sketch.</desc>
    <g id="chevron-down" stroke="none" stroke-width="1" fill="none" fill-rule="evenodd">
        <path d="M256,279.80216 L380.4,160.30216 C383.5,157.30216 388.5,157.40216 391.7,160.40216 L413.6,181.80216 C416.7,184.90216 416.8,189.90216 413.7,192.90216 L261.7,338.80216 C260.1,340.40216 258,341.10216 255.9,340.90216 C253.8,341.00216 251.7,340.30216 250.1,338.80216 L98.3,192.90216 C95.2,189.90216 95.3,184.90216 98.4,181.80216 L120.3,160.40216 C123.4,157.30216 128.5,157.30216 131.6,160.30216 L256,279.80216 Z" id="Path" fill="#000000" fill-rule="nonzero"></path>
    </g>
</svg>

<svg xmlns="http://www.w3.org/2000/svg" width="512" height="512" viewBox="0 0 512 512">
    <path d="M256 279.802l124.4-119.5c3.1-3 8.1-2.9 11.3.1l21.9 21.4c3.1 3.1 3.2 8.1.1 11.1l-152 145.9c-1.6 1.6-3.7 2.3-5.8 2.1-2.1.1-4.2-.6-5.8-2.1l-151.8-145.9c-3.1-3-3-8 .1-11.1l21.9-21.4c3.1-3.1 8.2-3.1 11.3-.1l124.4 119.5z"/>
</svg>
